Simply-Red-Circles/scalable/emotes/face-angry.svg

<svg xmlns="http://www.w3.org/2000/svg" width="48" height="48" viewBox="0 0 12.7 12.7"><path style="marker:none" d="M6.34.07a6.29 6.29 0 0 0-6.29 6.3 6.29 6.29 0 0 0 6.3 6.28 6.29 6.29 0 0 0 6.28-6.29A6.29 6.29 0 0 0 6.34.07zM6.32 1l.01.01a5.4 5.4 0 0 1 5.4 5.4 5.4 5.4 0 0 1-5.4 5.41 5.4 5.4 0 0 1-5.41-5.4A5.4 5.4 0 0 1 6.32 1zM4.17 3.69c-.22.28-.36.71-.36 1.2 0 .84.43 1.53.96 1.53.39 0 .72-.35.87-.85a6.4 6.4 0 0 1-1.47-1.88zm4.35 0a6.4 6.4 0 0 1-1.48 1.88c.16.5.5.85.87.85.54 0 .97-.69.97-1.54 0-.48-.14-.91-.36-1.2zM5 5.55a.2.22 0 0 1 .2.21.2.22 0 0 1-.2.22.2.22 0 0 1-.19-.22.2.22 0 0 1 .2-.21zm2.7 0a.2.22 0 0 1 .2.21.2.22 0 0 1-.2.22.2.22 0 0 1-.18-.22.2.22 0 0 1 .19-.21zM6.3 7.27c-2.11 0-3.04 2.38-2.48 2.2a9.72 9.72 0 0 1 5.04-.03c.6.18-.48-2.17-2.57-2.17zm-.02.21l.09.7h-.04a7.14 7.14 0 0 1-1.38-.27 2.4 2.4 0 0 1 1.33-.43zm.16 0c.49.03.91.19 1.25.4-.04.02-.85.28-1.31.29l.06-.68zm-1.89.78l.75.01-.08.7c-.35.04-.67.1-.96.18-.25.07-.14-.42.3-.89zm.77.01l1.05.02-.08.6c-.31 0-.62.02-.9.05l-.07-.67zm1.06.02H7.4l-.07.64a9.6 9.6 0 0 0-.9-.04l-.06-.6zm1.06 0l.76.02c.42.44.53.88.27.82a7.4 7.4 0 0 0-.97-.18l-.06-.65z" overflow="visible" fill="#a02c2c"/></svg>

<?xml version="1.0" encoding="UTF-8" standalone="no"?>
<svg
   xmlns:dc="http://purl.org/dc/elements/1.1/"
   xmlns:cc="http://creativecommons.org/ns#"
   xmlns:rdf="http://www.w3.org/1999/02/22-rdf-syntax-ns#"
   xmlns:svg="http://www.w3.org/2000/svg"
   xmlns="http://www.w3.org/2000/svg"
   xmlns:sodipodi="http://sodipodi.sourceforge.net/DTD/sodipodi-0.dtd"
   xmlns:inkscape="http://www.inkscape.org/namespaces/inkscape"
   width="48"
   height="48"
   viewBox="0 0 12.7 12.7"
   version="1.1"
   id="svg16"
   sodipodi:docname="face-angry.svg"
   inkscape:version="0.92.4 (5da689c313, 2019-01-14)">
  <metadata
     id="metadata20">
    <rdf:RDF>
      <cc:Work
         rdf:about="">
        <dc:format>image/svg+xml</dc:format>
        <dc:type
           rdf:resource="http://purl.org/dc/dcmitype/StillImage" />
        <dc:title></dc:title>
      </cc:Work>
    </rdf:RDF>
  </metadata>
  <sodipodi:namedview
     pagecolor="#ffffff"
     bordercolor="#666666"
     borderopacity="1"
     objecttolerance="10"
     gridtolerance="10"
     guidetolerance="10"
     inkscape:pageopacity="0"
     inkscape:pageshadow="2"
     inkscape:window-width="1087"
     inkscape:window-height="480"
     id="namedview18"
     showgrid="false"
     inkscape:zoom="4.9166667"
     inkscape:cx="2.1355932"
     inkscape:cy="24"
     inkscape:window-x="0"
     inkscape:window-y="25"
     inkscape:window-maximized="0"
     inkscape:current-layer="svg16" />
  <defs
     id="defs12">
    <linearGradient
       id="b">
      <stop
         offset="0"
         stop-color="#fff"
         id="stop2" />
      <stop
         offset="1"
         stop-color="#fff"
         stop-opacity="0"
         id="stop4" />
    </linearGradient>
    <linearGradient
       id="a">
      <stop
         offset="0"
         stop-color="#b3b3b3"
         id="stop7" />
      <stop
         offset="1"
         id="stop9" />
    </linearGradient>
  </defs>
  <path
     style="overflow:visible;fill:#a02c2c;marker:none"
     d="M 6.34,0.07 A 6.29,6.29 0 0 0 0.05,6.37 6.29,6.29 0 0 0 6.35,12.65 6.29,6.29 0 0 0 12.63,6.36 6.29,6.29 0 0 0 6.34,0.07 Z M 6.32,1 6.33,1.01 a 5.4,5.4 0 0 1 5.4,5.4 5.4,5.4 0 0 1 -5.4,5.41 A 5.4,5.4 0 0 1 0.92,6.42 5.4,5.4 0 0 1 6.32,1 Z M 4.17,3.69 C 3.95,3.97 3.81,4.4 3.81,4.89 c 0,0.84 0.43,1.53 0.96,1.53 0.39,0 0.72,-0.35 0.87,-0.85 A 6.4,6.4 0 0 1 4.17,3.69 Z m 4.35,0 A 6.4,6.4 0 0 1 7.04,5.57 C 7.2,6.07 7.54,6.42 7.91,6.42 8.45,6.42 8.88,5.73 8.88,4.88 8.88,4.4 8.74,3.97 8.52,3.68 Z M 5,5.55 A 0.2,0.22 0 0 1 5.2,5.76 0.2,0.22 0 0 1 5,5.98 0.2,0.22 0 0 1 4.81,5.76 0.2,0.22 0 0 1 5.01,5.55 Z m 2.7,0 A 0.2,0.22 0 0 1 7.9,5.76 0.2,0.22 0 0 1 7.7,5.98 0.2,0.22 0 0 1 7.52,5.76 0.2,0.22 0 0 1 7.71,5.55 Z M 6.3,7.27 c -2.11,0 -3.04,2.38 -2.48,2.2 A 9.72,9.72 0 0 1 8.86,9.44 C 9.46,9.62 8.38,7.27 6.29,7.27 Z M 6.28,7.48 6.37,8.18 H 6.33 C 5.82,8.16 4.96,7.92 4.95,7.91 5.3,7.67 5.74,7.49 6.28,7.48 Z m 0.16,0 C 6.93,7.51 7.35,7.67 7.69,7.88 7.65,7.9 6.84,8.16 6.38,8.17 L 6.44,7.49 Z M 4.55,8.26 5.3,8.27 5.22,8.97 C 4.87,9.01 4.55,9.07 4.26,9.15 4.01,9.22 4.12,8.73 4.56,8.26 Z m 0.77,0.01 1.05,0.02 -0.08,0.6 c -0.31,0 -0.62,0.02 -0.9,0.05 z M 6.38,8.29 H 7.4 L 7.33,8.93 A 9.6,9.6 0 0 0 6.43,8.89 L 6.37,8.29 Z m 1.06,0 0.76,0.02 C 8.62,8.75 8.73,9.19 8.47,9.13 A 7.4,7.4 0 0 0 7.5,8.95 L 7.44,8.3 Z"
     overflow="visible"
     id="path14"
     inkscape:connector-curvature="0" />
</svg>
